build/svg/cmd/32/basicstepinto.svg

<?xml version="1.0" encoding="UTF-8" standalone="no"?>
<svg
   xmlns:dc="http://purl.org/dc/elements/1.1/"
   xmlns:cc="http://creativecommons.org/ns#"
   xmlns:rdf="http://www.w3.org/1999/02/22-rdf-syntax-ns#"
   xmlns:svg="http://www.w3.org/2000/svg"
   xmlns="http://www.w3.org/2000/svg"
   xmlns:sodipodi="http://sodipodi.sourceforge.net/DTD/sodipodi-0.dtd"
   xmlns:inkscape="http://www.inkscape.org/namespaces/inkscape"
   viewBox="0 0 32 32"
   version="1.1"
   id="svg6"
   sodipodi:docname="basicstepinto.svg"
   inkscape:export-filename="/home/jupiter007/Libreoffice yaru theme fullcolor/build/cmd/32/basicstepinto.png"
   inkscape:export-xdpi="96"
   inkscape:export-ydpi="96"
   inkscape:version="0.92.5 (2060ec1f9f, 2020-04-08)">
  <metadata
     id="metadata12">
    <rdf:RDF>
      <cc:Work
         rdf:about="">
        <dc:format>image/svg+xml</dc:format>
        <dc:type
           rdf:resource="http://purl.org/dc/dcmitype/StillImage" />
      </cc:Work>
    </rdf:RDF>
  </metadata>
  <defs
     id="defs10" />
  <sodipodi:namedview
     pagecolor="#ffffff"
     bordercolor="#666666"
     borderopacity="1"
     objecttolerance="10"
     gridtolerance="10"
     guidetolerance="10"
     inkscape:pageopacity="0"
     inkscape:pageshadow="2"
     inkscape:window-width="1920"
     inkscape:window-height="1011"
     id="namedview8"
     showgrid="true"
     inkscape:zoom="14.75"
     inkscape:cx="7.4331645"
     inkscape:cy="18.839758"
     inkscape:window-x="0"
     inkscape:window-y="32"
     inkscape:window-maximized="1"
     inkscape:current-layer="svg6">
    <inkscape:grid
       type="xygrid"
       id="grid838" />
  </sodipodi:namedview>
  <path
     sodipodi:nodetypes="ccsscccccscc"
     inkscape:connector-curvature="0"
     id="path845"
     d="M 11.01563,9.9883173 11,12.003942 l 3,0.0078 c 1.999993,0.0052 2,0 2,2 v 3 h -3 l 4,5 4,-5 h -3 v -4 c 0,-2 -1,-3 -3,-3 z"
     style="opacity:0.6;fill:#e97cc8;fill-opacity:1;stroke:#000000;stroke-width:2;stroke-linecap:butt;stroke-linejoin:round;stroke-miterlimit:4;stroke-dasharray:none;stroke-opacity:1" />
  <path
     sodipodi:nodetypes="cssccssccssccssccccccccccc"
     style="opacity:0.6;fill:#000000;stroke:#000000;stroke-width:2;stroke-linejoin:round;stroke-miterlimit:4;stroke-dasharray:none"
     inkscape:connector-curvature="0"
     id="path821"
     d="m 8.7230518,3.9999999 c -1.7768299,0 -2.7226568,0.7063656 -2.7226568,2.5097656 v 2.4414063 c 0,0.0161 -0.0019,0.032728 -0.0019,0.048828 h 0.0019 V 12.595703 C 6.000395,13.709503 5.966205,15 4.9847699,15 H 4.0000046 v 2 h 0.9847653 c 0.98148,0 1.0156251,1.290497 1.0156251,2.404297 V 23 h -0.0019 c 2e-5,0.0162 0.0019,0.03273 0.0019,0.04883 v 2.441406 C 6.000395,27.293634 6.9462219,28 8.7230518,28 h 0.2769529 v -2 c -1.18455,0 -1,-0.478337 -1,-2.210937 V 18.40625 c 0,-0.8309 -0.204705,-2.067378 -1.2031247,-2.580078 0.9984197,-0.5127 1.2031247,-1.751032 1.2031247,-2.582032 V 8.2109373 c 2.7e-4,-1.7326 -0.18462,-2.2109374 1,-2.2109374 v -2 z" />
  <path
     d="m 8.7230518,3.9999999 c -1.7768299,0 -2.7226568,0.7063656 -2.7226568,2.5097656 v 2.4414063 c 0,0.0161 -0.0019,0.032728 -0.0019,0.048828 h 0.0019 V 12.595703 C 6.000395,13.709503 5.966205,15 4.9847699,15 H 4.0000046 v 2 h 0.9847653 c 0.98148,0 1.0156251,1.290497 1.0156251,2.404297 V 23 h -0.0019 c 2e-5,0.0162 0.0019,0.03273 0.0019,0.04883 v 2.441406 C 6.000395,27.293634 6.9462219,28 8.7230518,28 h 0.2769529 v -2 c -1.18455,0 -1,-0.478337 -1,-2.210937 V 18.40625 c 0,-0.8309 -0.204705,-2.067378 -1.2031247,-2.580078 0.9984197,-0.5127 1.2031247,-1.751032 1.2031247,-2.582032 V 8.2109373 c 2.7e-4,-1.7326 -0.18462,-2.2109374 1,-2.2109374 v -2 z"
     id="path2"
     inkscape:connector-curvature="0"
     style="fill:#ffffff"
     sodipodi:nodetypes="cssccssccssccssccccccccccc" />
  <path
     d="m 23.073828,3.9999999 c 1.77683,0 2.722656,0.7063656 2.722656,2.5097656 v 2.4414063 c 0,0.0161 0.002,0.032728 0.002,0.048828 h -0.002 v 3.5957032 c 0,1.1138 0.0342,2.404297 1.015625,2.404297 h 0.984766 v 2 h -0.984766 c -0.98148,0 -1.015625,1.290497 -1.015625,2.404297 V 23 h 0.002 c -2e-5,0.0162 -0.002,0.03273 -0.002,0.04883 v 2.441406 C 25.796484,27.293634 24.850658,28 23.073828,28 h -0.276953 v -2 c 1.18455,0 1,-0.478337 1,-2.210937 V 18.40625 c 0,-0.8309 0.204705,-2.067378 1.203125,-2.580078 -0.99842,-0.5127 -1.203125,-1.751032 -1.203125,-2.582032 V 8.2109373 c -2.7e-4,-1.7326 0.18462,-2.2109374 -1,-2.2109374 v -2 z"
     id="path823"
     inkscape:connector-curvature="0"
     style="opacity:0.6;fill:#000000;stroke:#000000;stroke-width:2;stroke-linejoin:round;stroke-miterlimit:4;stroke-dasharray:none"
     sodipodi:nodetypes="cssccssccssccssccccccccccc" />
  <path
     sodipodi:nodetypes="cssccssccssccssccccccccccc"
     style="fill:#ffffff"
     inkscape:connector-curvature="0"
     id="path825"
     d="m 23.073828,3.9999999 c 1.77683,0 2.722656,0.7063656 2.722656,2.5097656 v 2.4414063 c 0,0.0161 0.002,0.032728 0.002,0.048828 h -0.002 v 3.5957032 c 0,1.1138 0.0342,2.404297 1.015625,2.404297 h 0.984766 v 2 h -0.984766 c -0.98148,0 -1.015625,1.290497 -1.015625,2.404297 V 23 h 0.002 c -2e-5,0.0162 -0.002,0.03273 -0.002,0.04883 v 2.441406 C 25.796484,27.293634 24.850658,28 23.073828,28 h -0.276953 v -2 c 1.18455,0 1,-0.478337 1,-2.210937 V 18.40625 c 0,-0.8309 0.204705,-2.067378 1.203125,-2.580078 -0.99842,-0.5127 -1.203125,-1.751032 -1.203125,-2.582032 V 8.2109373 c -2.7e-4,-1.7326 0.18462,-2.2109374 -1,-2.2109374 v -2 z" />
  <path
     style="fill:#e97cc8;fill-opacity:1;stroke:none;stroke-width:1px;stroke-linecap:butt;stroke-linejoin:miter;stroke-opacity:1"
     d="M 11.01563,9.9883173 11,12.003942 l 3,0.0078 c 1.999993,0.0052 2,0 2,2 v 3 h -3 l 4,5 4,-5 h -3 v -4 c 0,-2 -1,-3 -3,-3 z"
     id="path833"
     inkscape:connector-curvature="0"
     sodipodi:nodetypes="ccsscccccscc" />
</svg>

<svg xmlns="http://www.w3.org/2000/svg" viewBox="0 0 32 32"><path d="M11.016 9.988L11 12.004l3 .008c2 .005 2 0 2 2v3h-3l4 5 4-5h-3v-4c0-2-1-3-3-3z" opacity=".6" fill="#e97cc8" stroke="#000" stroke-width="2" stroke-linejoin="round"/><path d="M8.723 4C6.946 4 6 4.706 6 6.51V8.95L5.998 9H6v3.596C6 13.71 5.966 15 4.985 15H4v2h.985C5.966 17 6 18.29 6 19.404V23h-.002l.002.049v2.441C6 27.294 6.946 28 8.723 28H9v-2c-1.185 0-1-.478-1-2.21v-5.384c0-.83-.205-2.067-1.203-2.58C7.795 15.313 8 14.076 8 13.244V8.211C8 6.478 7.815 6 9 6V4z" opacity=".6" stroke="#000" stroke-width="2" stroke-linejoin="round"/><path d="M8.723 4C6.946 4 6 4.706 6 6.51V8.95L5.998 9H6v3.596C6 13.71 5.966 15 4.985 15H4v2h.985C5.966 17 6 18.29 6 19.404V23h-.002l.002.049v2.441C6 27.294 6.946 28 8.723 28H9v-2c-1.185 0-1-.478-1-2.21v-5.384c0-.83-.205-2.067-1.203-2.58C7.795 15.313 8 14.076 8 13.244V8.211C8 6.478 7.815 6 9 6V4z" fill="#fff"/><path d="M23.074 4c1.777 0 2.722.706 2.722 2.51V8.95l.002.049h-.002v3.596c0 1.114.035 2.404 1.016 2.404h.985v2h-.985c-.981 0-1.016 1.29-1.016 2.404V23h.002l-.002.049v2.441c0 1.804-.945 2.51-2.722 2.51h-.277v-2c1.184 0 1-.478 1-2.21v-5.384c0-.83.205-2.067 1.203-2.58-.998-.513-1.203-1.75-1.203-2.582V8.211c0-1.733.184-2.211-1-2.211V4z" opacity=".6" stroke="#000" stroke-width="2" stroke-linejoin="round"/><path d="M23.074 4c1.777 0 2.722.706 2.722 2.51V8.95l.002.049h-.002v3.596c0 1.114.035 2.404 1.016 2.404h.985v2h-.985c-.981 0-1.016 1.29-1.016 2.404V23h.002l-.002.049v2.441c0 1.804-.945 2.51-2.722 2.51h-.277v-2c1.184 0 1-.478 1-2.21v-5.384c0-.83.205-2.067 1.203-2.58-.998-.513-1.203-1.75-1.203-2.582V8.211c0-1.733.184-2.211-1-2.211V4z" fill="#fff"/><path d="M11.016 9.988L11 12.004l3 .008c2 .005 2 0 2 2v3h-3l4 5 4-5h-3v-4c0-2-1-3-3-3z" fill="#e97cc8"/></svg>
